img/stroke.svg

<svg width="41" height="58" viewBox="0 0 41 58" fill="none" xmlns="http://www.w3.org/2000/svg">
<g filter="url(#filter0_d)">
<path fill-rule="evenodd" clip-rule="evenodd" d="M21.3113 15.508C22.0047 16.439 23.2427 17.1217 25.2946 16.8469C28.8975 16.3644 31.6855 17.4456 33.3582 19.5167C34.9898 21.5368 35.3643 24.2642 34.6618 26.7102C33.9519 29.1819 32.1264 31.4474 29.2582 32.583C26.3942 33.717 22.6671 33.6599 18.216 31.8717C14.3494 30.3183 12.1258 30.5701 10.9292 31.2703C9.76165 31.9534 9.07789 33.3612 9.00606 35.3528C8.93489 37.3258 9.49503 39.5733 10.458 41.3899C11.4548 43.2703 12.6763 44.3246 13.6957 44.5294L13.1048 47.4706C10.7649 47.0006 8.95819 44.9658 7.80743 42.795C6.62285 40.5604 5.91602 37.7947 6.00801 35.2447C6.09932 32.7132 7.00882 30.0882 9.41418 28.6809C11.7904 27.2906 15.1193 27.3945 19.3343 29.0879C23.2814 30.6736 26.189 30.5716 28.1539 29.7937C30.1147 29.0173 31.3125 27.5041 31.7784 25.882C32.2516 24.2343 31.9543 22.5531 31.0244 21.4017C30.1357 20.3013 28.4726 19.4481 25.6928 19.8203C22.7058 20.2203 20.3325 19.216 18.9054 17.3002C17.5292 15.4527 17.1937 12.9741 17.7342 10.6548C18.28 8.31217 19.7384 6.01641 22.1216 4.4575C24.5164 2.89101 27.7478 2.12943 31.744 2.67673L31.3369 5.64898C27.9426 5.1841 25.4632 5.85647 23.7639 6.96808C22.0529 8.08727 21.0338 9.71377 20.6559 11.3356C20.2725 12.9807 20.5669 14.5087 21.3113 15.508Z" fill="black" stroke="black" stroke-width="3"/>
<path fill-rule="evenodd" clip-rule="evenodd" d="M31.5133 4.36101C31.0533 4.298 30.6067 4.2542 30.1736 4.22836L30.1974 3.82907C30.641 3.85553 31.0978 3.90036 31.5676 3.96471L31.5133 4.36101ZM27.487 4.30828C26.5394 4.42942 25.6762 4.6483 24.896 4.9451L24.7538 4.57124C25.5647 4.26275 26.4587 4.03648 27.4363 3.91151L27.487 4.30828ZM22.5651 6.22218C21.8251 6.77927 21.2089 7.42361 20.7144 8.1187L20.3885 7.88681C20.9064 7.15888 21.5511 6.4848 22.3245 5.90261L22.5651 6.22218ZM19.5383 10.492C19.2674 11.3689 19.1549 12.2601 19.1966 13.1098L18.7971 13.1294C18.753 12.2313 18.8721 11.2936 19.1561 10.374L19.5383 10.492ZM19.8617 15.6393C20.2706 16.4114 20.8632 17.0592 21.6351 17.5108L21.4331 17.856C20.5921 17.364 19.9492 16.6592 19.5082 15.8265L19.8617 15.6393ZM25.4671 18.1354C26.0153 18.062 26.5366 18.0289 27.031 18.0327L27.0279 18.4327C26.5535 18.429 26.051 18.4607 25.5202 18.5318C25.0279 18.5978 24.5606 18.6198 24.1189 18.6016L24.1354 18.202C24.5522 18.2191 24.9962 18.1984 25.4671 18.1354ZM30.0887 18.633C31.1283 19.0834 31.9437 19.7615 32.5346 20.5791L32.2104 20.8134C31.6614 20.0538 30.9029 19.4217 29.9297 19.0001L30.0887 18.633ZM33.6511 23.5C33.7732 24.5216 33.6663 25.5879 33.334 26.6067L32.9537 26.4827C33.2685 25.5175 33.3689 24.5097 33.2539 23.5475L33.6511 23.5ZM14.6936 29.5255C13.6425 29.376 12.732 29.3912 11.9491 29.5384L11.8752 29.1452C12.7085 28.9886 13.6637 28.975 14.7499 29.1295L14.6936 29.5255ZM31.7737 29.3109C31.1083 30.0526 30.2724 30.6904 29.2687 31.1628L29.0984 30.8008C30.0534 30.3514 30.846 29.746 31.4759 29.0438L31.7737 29.3109ZM18.7006 30.6654C18.2456 30.4826 17.8073 30.3217 17.3851 30.1815L17.5111 29.8019C17.9416 29.9448 18.3876 30.1086 18.8497 30.2942C19.3381 30.4904 19.8142 30.6632 20.2779 30.8138L20.1543 31.1943C19.6817 31.0407 19.1971 30.8648 18.7006 30.6654ZM9.53944 30.6826C8.87649 31.2772 8.40685 32.0545 8.10782 32.95L7.72841 32.8233C8.04526 31.8745 8.5488 31.0338 9.27236 30.3848L9.53944 30.6826ZM26.2685 31.9792C25.3197 32.08 24.2835 32.0628 23.161 31.9044L23.2169 31.5084C24.3096 31.6625 25.3128 31.6785 26.2263 31.5814L26.2685 31.9792ZM7.70004 35.6573C7.69718 36.555 7.8044 37.4873 8.00519 38.4081L7.61437 38.4934C7.40806 37.5472 7.29708 36.5858 7.30005 35.6561L7.70004 35.6573ZM8.8538 41.0486C9.23517 41.9309 9.69747 42.748 10.2202 43.4495L9.89949 43.6885C9.35588 42.959 8.87868 42.1143 8.48664 41.2074L8.8538 41.0486ZM12.1993 45.3144C12.6017 45.5524 13.0168 45.719 13.4396 45.8039L13.3608 46.1961C12.8882 46.1012 12.4313 45.9163 11.9957 45.6588L12.1993 45.3144Z" fill="white" stroke="black" stroke-width="0.4" stroke-dasharray="3 3"/>
<path d="M17 46.5C17 48.1569 15.6569 49.5 14 49.5C12.3431 49.5 11 48.1569 11 46.5C11 44.8431 12.3431 43.5 14 43.5C15.6569 43.5 17 44.8431 17 46.5Z" fill="#C4C4C4" stroke="black"/>
<path d="M15 46.5C15 47.0523 14.5523 47.5 14 47.5C13.4477 47.5 13 47.0523 13 46.5C13 45.9477 13.4477 45.5 14 45.5C14.5523 45.5 15 45.9477 15 46.5Z" fill="white" stroke="black"/>
<path d="M36 3.5C36 5.15685 34.6569 6.5 33 6.5C31.3431 6.5 30 5.15685 30 3.5C30 1.84315 31.3431 0.5 33 0.5C34.6569 0.5 36 1.84315 36 3.5Z" fill="#C4C4C4" stroke="black"/>
<path d="M34 3.5C34 4.05228 33.5523 4.5 33 4.5C32.4477 4.5 32 4.05228 32 3.5C32 2.94772 32.4477 2.5 33 2.5C33.5523 2.5 34 2.94772 34 3.5Z" fill="white" stroke="black"/>
</g>
<defs>
<filter id="filter0_d" x="0.5" y="0" width="40" height="58" filterUnits="userSpaceOnUse" color-interpolation-filters="sRGB">
<feFlood flood-opacity="0" result="BackgroundImageFix"/>
<feColorMatrix in="SourceAlpha" type="matrix" values="0 0 0 0 0 0 0 0 0 0 0 0 0 0 0 0 0 0 127 0"/>
<feOffset dy="4"/>
<feGaussianBlur stdDeviation="2"/>
<feColorMatrix type="matrix" values="0 0 0 0 0 0 0 0 0 0 0 0 0 0 0 0 0 0 0.25 0"/>
<feBlend mode="normal" in2="BackgroundImageFix" result="effect1_dropShadow"/>
<feBlend mode="normal" in="SourceGraphic" in2="effect1_dropShadow" result="shape"/>
</filter>
</defs>
</svg>

<svg width="41" height="58" fill="none" xmlns="http://www.w3.org/2000/svg"><g filter="url(#filter0_d)" stroke="#000"><path fill-rule="evenodd" clip-rule="evenodd" d="M21.311 15.508c.694.931 1.932 1.614 3.984 1.339 3.602-.483 6.39.599 8.063 2.67 1.632 2.02 2.006 4.747 1.304 7.193-.71 2.472-2.536 4.737-5.404 5.873-2.864 1.134-6.59 1.077-11.042-.711-3.867-1.554-6.09-1.302-7.287-.602-1.167.683-1.851 2.091-1.923 4.083-.071 1.973.489 4.22 1.452 6.037.997 1.88 2.218 2.935 3.238 3.14l-.591 2.94c-2.34-.47-4.147-2.504-5.298-4.675-1.184-2.235-1.891-5-1.799-7.55.091-2.532 1-5.157 3.406-6.564 2.376-1.39 5.705-1.287 9.92.407 3.947 1.586 6.855 1.484 8.82.706 1.96-.777 3.159-2.29 3.624-3.912.474-1.648.176-3.329-.754-4.48-.888-1.1-2.551-1.954-5.331-1.582-2.987.4-5.36-.604-6.788-2.52-1.376-1.847-1.711-4.326-1.17-6.645.545-2.343 2.003-4.639 4.387-6.197 2.394-1.567 5.626-2.329 9.622-1.781l-.407 2.972c-3.394-.465-5.874.207-7.573 1.32-1.711 1.118-2.73 2.745-3.108 4.367-.383 1.645-.09 3.173.655 4.172z" fill="#000" stroke-width="3"/><path fill-rule="evenodd" clip-rule="evenodd" d="M31.513 4.361c-.46-.063-.906-.107-1.34-.133l.024-.399c.444.027.9.071 1.37.136l-.054.396zm-4.026-.053c-.948.121-1.81.34-2.591.637l-.142-.374c.81-.308 1.705-.535 2.682-.66l.051.397zm-4.922 1.914a8.65 8.65 0 00-1.85 1.897l-.326-.232a9.05 9.05 0 011.936-1.984l.24.32zm-3.027 4.27a7.636 7.636 0 00-.341 2.618l-.4.02a8.037 8.037 0 01.36-2.756l.381.118zm.324 5.147a4.67 4.67 0 001.773 1.872l-.202.345a5.069 5.069 0 01-1.925-2.03l.354-.187zm5.605 2.496c.548-.073 1.07-.106 1.564-.102l-.003.4a10.73 10.73 0 00-1.508.099c-.492.066-.96.088-1.401.07l.016-.4c.417.017.861-.004 1.332-.067zm4.622.498a5.848 5.848 0 012.446 1.946l-.325.234A5.448 5.448 0 0029.93 19l.159-.367zM33.65 23.5a7.27 7.27 0 01-.317 3.107l-.38-.124a6.87 6.87 0 00.3-2.936l.397-.047zm-18.957 6.026c-1.052-.15-1.962-.135-2.745.012l-.074-.393c.834-.156 1.789-.17 2.875-.015l-.056.396zm17.08-.215a7.818 7.818 0 01-2.505 1.852l-.17-.362a7.415 7.415 0 002.377-1.757l.298.267zM18.7 30.665a22.845 22.845 0 00-1.316-.483l.126-.38c.43.143.877.307 1.339.492.488.196.964.37 1.428.52l-.124.38c-.472-.153-.957-.33-1.453-.529zm-9.162.018c-.663.594-1.132 1.371-1.431 2.267l-.38-.127c.317-.948.82-1.79 1.544-2.438l.267.298zm16.73 1.296c-.95.101-1.985.084-3.108-.075l.056-.396a12.26 12.26 0 003.01.073l.041.398zM7.7 35.657c-.003.898.104 1.83.305 2.751l-.39.085a13.211 13.211 0 01-.315-2.837l.4.001zm1.154 5.392c.381.882.843 1.699 1.366 2.4l-.32.24a12.416 12.416 0 01-1.413-2.482l.367-.158zm3.345 4.265a3.98 3.98 0 001.24.49l-.078.392a4.382 4.382 0 01-1.365-.537l.203-.345z" fill="#fff" stroke-width=".4" stroke-dasharray="3 3"/><path d="M17 46.5a3 3 0 11-6 0 3 3 0 016 0z" fill="#C4C4C4"/><path d="M15 46.5a1 1 0 11-2 0 1 1 0 012 0z" fill="#fff"/><path d="M36 3.5a3 3 0 11-6 0 3 3 0 016 0z" fill="#C4C4C4"/><path d="M34 3.5a1 1 0 11-2 0 1 1 0 012 0z" fill="#fff"/></g><defs><filter id="filter0_d" x=".5" y="0" width="40" height="58" filterUnits="userSpaceOnUse" color-interpolation-filters="sRGB"><feFlood flood-opacity="0" result="BackgroundImageFix"/><feColorMatrix in="SourceAlpha" values="0 0 0 0 0 0 0 0 0 0 0 0 0 0 0 0 0 0 127 0"/><feOffset dy="4"/><feGaussianBlur stdDeviation="2"/><feColorMatrix values="0 0 0 0 0 0 0 0 0 0 0 0 0 0 0 0 0 0 0.25 0"/><feBlend in2="BackgroundImageFix" result="effect1_dropShadow"/><feBlend in="SourceGraphic" in2="effect1_dropShadow" result="shape"/></filter></defs></svg>
